jekyll/assets/img/europe_flag.svg

<svg fill="none" height="47" viewBox="0 0 71 47" width="71" xmlns="http://www.w3.org/2000/svg" xmlns:xlink="http://www.w3.org/1999/xlink"><clipPath id="a"><path d="m0 0h71v47h-71z"/></clipPath><g clip-path="url(#a)"><path d="m71 0h-71v47h71z" fill="#039"/><g fill="#fc0"><path d="m35.5 5.22217-.8126 2.48331 1.2505.40344z"/><path d="m35.5 5.22217.8126 2.48331-1.2505.40344z"/><path d="m37.9987 7.03076-2.6275-.00436.0023 1.30119z"/><path d="m38.0009 7.02856-2.1255 1.53257-.7748-1.05842z"/><path d="m37.0456 9.9469-.8143-2.48454-1.2488.40221z"/><path d="m37.0469 9.94568-2.1287-1.53614.7716-1.05485z"/><path d="m33.0013 7.03076 2.6274-.00436-.0022 1.30119z"/><path d="m32.9991 7.02856 2.1254 1.53257.7748-1.05842z"/><path d="m33.9543 9.9469.8144-2.48454 1.2487.40221z"/><path d="m33.9531 9.94568 2.1286-1.53614-.7716-1.05485z"/><path d="m35.5 36.5555-.8126 2.4834 1.2505.4034z"/><path d="m35.5 36.5555.8126 2.4834-1.2505.4034z"/><path d="m37.9987 38.3641-2.6275-.0043.0023 1.3012z"/><path d="m38.0009 38.3619-2.1255 1.5326-.7748-1.0584z"/><path d="m37.0456 41.2803-.8143-2.4846-1.2488.4022z"/><path d="m37.0469 41.2791-2.1287-1.5362.7716-1.0548z"/><path d="m33.0013 38.3641 2.6274-.0043-.0022 1.3012z"/><path d="m32.9991 38.3619 2.1254 1.5326.7748-1.0584z"/><path d="m33.9543 41.2803.8144-2.4846 1.2487.4022z"/><path d="m33.9531 41.2791 2.1286-1.5362-.7716-1.0548z"/><path d="m19.7222 20.8889-.8126 2.4833 1.2505.4035z"/><path d="m19.7222 20.8889.8126 2.4833-1.2504.4035z"/><path d="m22.2209 22.6975-2.6274-.0044.0022 1.3012z"/><path d="m22.2231 22.6953-2.1254 1.5326-.7749-1.0584z"/><path d="m21.2678 25.6136-.8143-2.4845-1.2487.4022z"/><path d="m21.2691 25.6124-2.1286-1.5361.7715-1.0549z"/><path d="m17.2235 22.6975 2.6274-.0044-.0022 1.3012z"/><path d="m17.2213 22.6953 2.1254 1.5326.7749-1.0584z"/><path d="m18.1766 25.6136.8143-2.4845 1.2487.4022z"/><path d="m18.1753 25.6124 2.1286-1.5361-.7715-1.0549z"/><path d="m26.0641 12.0447 2.1287-1.5362-.7715-1.05481z"/><path d="m26.0654 12.046.8145-2.48458 1.2486.40215z"/><path d="m25.1101 9.12646 2.1263 1.53354.774-1.05737z"/><path d="m25.1113 9.12769 2.6285-.00238-.0012 1.30319z"/><path d="m27.6129 7.32104-.8145 2.48461 1.2487.40215z"/><path d="m27.6129 7.32104.8107 2.48203-1.2523.40473z"/><path d="m29.1556 12.0447-2.1263-1.5335.774-1.05751z"/><path d="m29.1567 12.0435-.8109-2.4822-1.2521.4046z"/><path d="m30.112 9.12451-2.1283 1.53579-.7719-1.0553z"/><path d="m30.112 9.12537-2.6287.00191-.0009 1.30362z"/><path d="m23.3817 17.7803-.8145-2.4846-1.2486.4021z"/><path d="m23.383 17.7791-2.1287-1.5363.7715-1.0547z"/><path d="m20.2915 17.7791 2.1262-1.5335-.774-1.0575z"/><path d="m20.2903 17.7778.811-2.4821 1.2521.4046z"/><path d="m19.3351 14.8589 2.1283 1.5357.7719-1.0552z"/><path d="m19.3351 14.8597 2.6286.002.001 1.3036z"/><path d="m24.337 14.8608-2.1264 1.5336-.7739-1.0574z"/><path d="m24.3358 14.8621-2.6285-.0024.0012 1.3032z"/><path d="m21.8342 13.0554.8145 2.4846-1.2487.4022z"/><path d="m21.8342 13.0554-.8107 2.482 1.2522.4048z"/><path d="m24.3338 30.5326-2.6265-.0061.0031 1.2994z"/><path d="m24.3369 30.5295-2.1246 1.5317-.7756-1.0593z"/><path d="m23.3817 33.449-.8173-2.4866-1.2458.4001z"/><path d="m23.3849 33.4458-2.1307-1.5384.7695-1.0526z"/><path d="m20.2924 33.4458 2.1253-1.5325-.7749-1.0585z"/><path d="m20.2903 33.4438.8097-2.4812 1.2534.4054z"/><path d="m21.832 28.7222.8166 2.4861-1.2465.4006z"/><path d="m21.832 28.7222-.8086 2.4805 1.2545.4062z"/><path d="m19.3351 30.5265 2.6284.0024.0012 1.3031z"/><path d="m19.3351 30.5253 2.1285 1.5359.7717-1.055z"/><path d="m30.1089 36.267-2.6265-.0062.0031 1.2994z"/><path d="m30.112 36.2639-2.1246 1.5317-.7756-1.0594z"/><path d="m29.1567 39.1833-.8172-2.4866-1.2458.4002z"/><path d="m29.16 39.1802-2.1307-1.5385.7695-1.0525z"/><path d="m26.0674 39.1802 2.1254-1.5325-.7749-1.0585z"/><path d="m26.0654 39.1782.8097-2.4813 1.2534.4055z"/><path d="m27.6071 34.4565.8166 2.4861-1.2465.4007z"/><path d="m27.6071 34.4565-.8086 2.4806 1.2545.4062z"/><path d="m25.1102 36.2609 2.6284.0023.0012 1.3032z"/><path d="m25.1102 36.2596 2.1285 1.536.7717-1.055z"/><path d="m51.2777 20.8889.8126 2.4833-1.2504.4035z"/><path d="m51.2777 20.8889-.8126 2.4833 1.2505.4035z"/><path d="m48.779 22.6975 2.6274-.0044-.0022 1.3012z"/><path d="m48.7768 22.6953 2.1254 1.5326.7748-1.0584z"/><path d="m49.7321 25.6136.8144-2.4845 1.2487.4022z"/><path d="m49.7308 25.6124 2.1287-1.5361-.7716-1.0549z"/><path d="m53.7765 22.6975-2.6275-.0044.0023 1.3012z"/><path d="m53.7787 22.6953-2.1254 1.5326-.7749-1.0584z"/><path d="m52.8234 25.6136-.8143-2.4845-1.2487.4022z"/><path d="m52.8246 25.6124-2.1286-1.5361.7716-1.0549z"/><path d="m44.9359 12.0447-2.1288-1.5362.7716-1.05481z"/><path d="m44.9345 12.046-.8144-2.48458-1.2487.40215z"/><path d="m45.8898 9.12646-2.1263 1.53354-.7739-1.05737z"/><path d="m45.8886 9.12769-2.6284-.00238.0012 1.30319z"/><path d="m43.3871 7.32104.8144 2.48461-1.2486.40215z"/><path d="m43.3871 7.32104-.8108 2.48203 1.2523.40473z"/><path d="m41.8444 12.0447 2.1262-1.5335-.774-1.05751z"/><path d="m41.8432 12.0435.8109-2.4822 1.2522.4046z"/><path d="m40.8879 9.12451 2.1283 1.53579.772-1.0553z"/><path d="m40.8879 9.12537 2.6287.00191.001 1.30362z"/><path d="m47.6183 17.7803.8144-2.4846 1.2486.4021z"/><path d="m47.6169 17.7791 2.1288-1.5363-.7716-1.0547z"/><path d="m50.7084 17.7791-2.1262-1.5335.774-1.0575z"/><path d="m50.7096 17.7778-.811-2.4821-1.2521.4046z"/><path d="m51.6649 14.8589-2.1283 1.5357-.772-1.0552z"/><path d="m51.6649 14.8597-2.6287.002-.001 1.3036z"/><path d="m46.663 14.8608 2.1264 1.5336.7739-1.0574z"/><path d="m46.6642 14.8621 2.6285-.0024-.0012 1.3032z"/><path d="m49.1657 13.0554-.8144 2.4846 1.2486.4022z"/><path d="m49.1657 13.0554.8108 2.482-1.2523.4048z"/><path d="m46.6661 30.5326 2.6265-.0061-.0031 1.2994z"/><path d="m46.663 30.5295 2.1246 1.5317.7757-1.0593z"/><path d="m47.6183 33.449.8173-2.4866 1.2457.4001z"/><path d="m47.615 33.4458 2.1307-1.5384-.7695-1.0526z"/><path d="m50.7076 33.4458-2.1254-1.5325.7749-1.0585z"/><path d="m50.7096 33.4438-.8097-2.4812-1.2533.4054z"/><path d="m49.1679 28.7222-.8166 2.4861 1.2465.4006z"/><path d="m49.1679 28.7222.8086 2.4805-1.2545.4062z"/><path d="m51.6648 30.5265-2.6284.0024-.0012 1.3031z"/><path d="m51.6648 30.5253-2.1285 1.5359-.7717-1.055z"/><path d="m40.8911 36.267 2.6265-.0062-.0032 1.2994z"/><path d="m40.8879 36.2639 2.1246 1.5317.7757-1.0594z"/><path d="m41.8432 39.1833.8173-2.4866 1.2458.4002z"/><path d="m41.8399 39.1802 2.1308-1.5385-.7695-1.0525z"/><path d="m44.9325 39.1802-2.1254-1.5325.7749-1.0585z"/><path d="m44.9345 39.1782-.8097-2.4813-1.2534.4055z"/><path d="m43.3928 34.4565-.8166 2.4861 1.2465.4007z"/><path d="m43.3928 34.4565.8086 2.4806-1.2544.4062z"/><path d="m45.8898 36.2609-2.6284.0023-.0013 1.3032z"/><path d="m45.8898 36.2596-2.1286 1.536-.7717-1.055z"/></g></g></svg>

<svg width="71" height="47" viewBox="0 0 71 47" fill="none" xmlns="http://www.w3.org/2000/svg">
<g clip-path="url(#clip0_1136_2656)">
<path d="M71 0H0V47H71V0Z" fill="#003399"/>
<path d="M35.5 5.22217L34.6874 7.70548L35.9379 8.10892L35.5 5.22217Z" fill="#FFCC00"/>
<path d="M35.5 5.22217L36.3126 7.70548L35.0621 8.10892L35.5 5.22217Z" fill="#FFCC00"/>
<path d="M37.9987 7.03076L35.3712 7.0264L35.3735 8.32759L37.9987 7.03076Z" fill="#FFCC00"/>
<path d="M38.0009 7.02856L35.8754 8.56113L35.1006 7.50271L38.0009 7.02856Z" fill="#FFCC00"/>
<path d="M37.0456 9.9469L36.2313 7.46236L34.9825 7.86457L37.0456 9.9469Z" fill="#FFCC00"/>
<path d="M37.0469 9.94568L34.9182 8.40954L35.6898 7.35469L37.0469 9.94568Z" fill="#FFCC00"/>
<path d="M33.0013 7.03076L35.6287 7.0264L35.6265 8.32759L33.0013 7.03076Z" fill="#FFCC00"/>
<path d="M32.9991 7.02856L35.1245 8.56113L35.8993 7.50271L32.9991 7.02856Z" fill="#FFCC00"/>
<path d="M33.9543 9.9469L34.7687 7.46236L36.0174 7.86457L33.9543 9.9469Z" fill="#FFCC00"/>
<path d="M33.9531 9.94568L36.0817 8.40954L35.3101 7.35469L33.9531 9.94568Z" fill="#FFCC00"/>
<path d="M35.5 36.5555L34.6874 39.0389L35.9379 39.4423L35.5 36.5555Z" fill="#FFCC00"/>
<path d="M35.5 36.5555L36.3126 39.0389L35.0621 39.4423L35.5 36.5555Z" fill="#FFCC00"/>
<path d="M37.9987 38.3641L35.3712 38.3598L35.3735 39.661L37.9987 38.3641Z" fill="#FFCC00"/>
<path d="M38.0009 38.3619L35.8754 39.8945L35.1006 38.8361L38.0009 38.3619Z" fill="#FFCC00"/>
<path d="M37.0456 41.2803L36.2313 38.7957L34.9825 39.1979L37.0456 41.2803Z" fill="#FFCC00"/>
<path d="M37.0469 41.2791L34.9182 39.7429L35.6898 38.6881L37.0469 41.2791Z" fill="#FFCC00"/>
<path d="M33.0013 38.3641L35.6287 38.3598L35.6265 39.661L33.0013 38.3641Z" fill="#FFCC00"/>
<path d="M32.9991 38.3619L35.1245 39.8945L35.8993 38.8361L32.9991 38.3619Z" fill="#FFCC00"/>
<path d="M33.9543 41.2803L34.7687 38.7957L36.0174 39.1979L33.9543 41.2803Z" fill="#FFCC00"/>
<path d="M33.9531 41.2791L36.0817 39.7429L35.3101 38.6881L33.9531 41.2791Z" fill="#FFCC00"/>
<path d="M19.7222 20.8889L18.9096 23.3722L20.1601 23.7757L19.7222 20.8889Z" fill="#FFCC00"/>
<path d="M19.7222 20.8889L20.5348 23.3722L19.2844 23.7757L19.7222 20.8889Z" fill="#FFCC00"/>
<path d="M22.2209 22.6975L19.5935 22.6931L19.5957 23.9943L22.2209 22.6975Z" fill="#FFCC00"/>
<path d="M22.2231 22.6953L20.0977 24.2279L19.3228 23.1695L22.2231 22.6953Z" fill="#FFCC00"/>
<path d="M21.2678 25.6136L20.4535 23.1291L19.2048 23.5313L21.2678 25.6136Z" fill="#FFCC00"/>
<path d="M21.2691 25.6124L19.1405 24.0763L19.912 23.0214L21.2691 25.6124Z" fill="#FFCC00"/>
<path d="M17.2235 22.6975L19.8509 22.6931L19.8487 23.9943L17.2235 22.6975Z" fill="#FFCC00"/>
<path d="M17.2213 22.6953L19.3467 24.2279L20.1216 23.1695L17.2213 22.6953Z" fill="#FFCC00"/>
<path d="M18.1766 25.6136L18.9909 23.1291L20.2396 23.5313L18.1766 25.6136Z" fill="#FFCC00"/>
<path d="M18.1753 25.6124L20.3039 24.0763L19.5324 23.0214L18.1753 25.6124Z" fill="#FFCC00"/>
<path d="M26.0641 12.0447L28.1928 10.5085L27.4213 9.45369L26.0641 12.0447Z" fill="#FFCC00"/>
<path d="M26.0654 12.046L26.8799 9.56142L28.1285 9.96357L26.0654 12.046Z" fill="#FFCC00"/>
<path d="M25.1101 9.12646L27.2364 10.66L28.0104 9.60263L25.1101 9.12646Z" fill="#FFCC00"/>
<path d="M25.1113 9.12769L27.7398 9.12531L27.7386 10.4285L25.1113 9.12769Z" fill="#FFCC00"/>
<path d="M27.6129 7.32104L26.7984 9.80565L28.0471 10.2078L27.6129 7.32104Z" fill="#FFCC00"/>
<path d="M27.6129 7.32104L28.4236 9.80307L27.1713 10.2078L27.6129 7.32104Z" fill="#FFCC00"/>
<path d="M29.1556 12.0447L27.0293 10.5112L27.8033 9.45369L29.1556 12.0447Z" fill="#FFCC00"/>
<path d="M29.1567 12.0435L28.3458 9.5613L27.0937 9.9659L29.1567 12.0435Z" fill="#FFCC00"/>
<path d="M30.112 9.12451L27.9837 10.6603L27.2118 9.605L30.112 9.12451Z" fill="#FFCC00"/>
<path d="M30.112 9.12537L27.4833 9.12728L27.4824 10.4309L30.112 9.12537Z" fill="#FFCC00"/>
<path d="M23.3817 17.7803L22.5672 15.2957L21.3186 15.6978L23.3817 17.7803Z" fill="#FFCC00"/>
<path d="M23.383 17.7791L21.2543 16.2428L22.0258 15.1881L23.383 17.7791Z" fill="#FFCC00"/>
<path d="M20.2915 17.7791L22.4177 16.2456L21.6437 15.1881L20.2915 17.7791Z" fill="#FFCC00"/>
<path d="M20.2903 17.7778L21.1013 15.2957L22.3534 15.7003L20.2903 17.7778Z" fill="#FFCC00"/>
<path d="M19.3351 14.8589L21.4634 16.3946L22.2353 15.3394L19.3351 14.8589Z" fill="#FFCC00"/>
<path d="M19.3351 14.8597L21.9637 14.8617L21.9647 16.1653L19.3351 14.8597Z" fill="#FFCC00"/>
<path d="M24.337 14.8608L22.2106 16.3944L21.4367 15.337L24.337 14.8608Z" fill="#FFCC00"/>
<path d="M24.3358 14.8621L21.7073 14.8597L21.7085 16.1629L24.3358 14.8621Z" fill="#FFCC00"/>
<path d="M21.8342 13.0554L22.6487 15.54L21.4 15.9422L21.8342 13.0554Z" fill="#FFCC00"/>
<path d="M21.8342 13.0554L21.0235 15.5374L22.2757 15.9422L21.8342 13.0554Z" fill="#FFCC00"/>
<path d="M24.3338 30.5326L21.7073 30.5265L21.7104 31.8259L24.3338 30.5326Z" fill="#FFCC00"/>
<path d="M24.3369 30.5295L22.2123 32.0612L21.4367 31.0019L24.3369 30.5295Z" fill="#FFCC00"/>
<path d="M23.3817 33.449L22.5644 30.9624L21.3186 31.3625L23.3817 33.449Z" fill="#FFCC00"/>
<path d="M23.3849 33.4458L21.2542 31.9074L22.0237 30.8548L23.3849 33.4458Z" fill="#FFCC00"/>
<path d="M20.2924 33.4458L22.4177 31.9133L21.6428 30.8548L20.2924 33.4458Z" fill="#FFCC00"/>
<path d="M20.2903 33.4438L21.1 30.9626L22.3534 31.368L20.2903 33.4438Z" fill="#FFCC00"/>
<path d="M21.832 28.7222L22.6486 31.2083L21.4021 31.6089L21.832 28.7222Z" fill="#FFCC00"/>
<path d="M21.832 28.7222L21.0234 31.2027L22.2779 31.6089L21.832 28.7222Z" fill="#FFCC00"/>
<path d="M19.3351 30.5265L21.9635 30.5289L21.9647 31.832L19.3351 30.5265Z" fill="#FFCC00"/>
<path d="M19.3351 30.5253L21.4636 32.0612L22.2353 31.0062L19.3351 30.5253Z" fill="#FFCC00"/>
<path d="M30.1089 36.267L27.4824 36.2608L27.4855 37.5602L30.1089 36.267Z" fill="#FFCC00"/>
<path d="M30.112 36.2639L27.9874 37.7956L27.2118 36.7362L30.112 36.2639Z" fill="#FFCC00"/>
<path d="M29.1567 39.1833L28.3395 36.6967L27.0937 37.0969L29.1567 39.1833Z" fill="#FFCC00"/>
<path d="M29.16 39.1802L27.0293 37.6417L27.7988 36.5892L29.16 39.1802Z" fill="#FFCC00"/>
<path d="M26.0674 39.1802L28.1928 37.6477L27.4179 36.5892L26.0674 39.1802Z" fill="#FFCC00"/>
<path d="M26.0654 39.1782L26.8751 36.6969L28.1285 37.1024L26.0654 39.1782Z" fill="#FFCC00"/>
<path d="M27.6071 34.4565L28.4237 36.9426L27.1772 37.3433L27.6071 34.4565Z" fill="#FFCC00"/>
<path d="M27.6071 34.4565L26.7985 36.9371L28.053 37.3433L27.6071 34.4565Z" fill="#FFCC00"/>
<path d="M25.1102 36.2609L27.7386 36.2632L27.7398 37.5664L25.1102 36.2609Z" fill="#FFCC00"/>
<path d="M25.1102 36.2596L27.2387 37.7956L28.0104 36.7406L25.1102 36.2596Z" fill="#FFCC00"/>
<path d="M51.2777 20.8889L52.0903 23.3722L50.8399 23.7757L51.2777 20.8889Z" fill="#FFCC00"/>
<path d="M51.2777 20.8889L50.4651 23.3722L51.7156 23.7757L51.2777 20.8889Z" fill="#FFCC00"/>
<path d="M48.779 22.6975L51.4064 22.6931L51.4042 23.9943L48.779 22.6975Z" fill="#FFCC00"/>
<path d="M48.7768 22.6953L50.9022 24.2279L51.677 23.1695L48.7768 22.6953Z" fill="#FFCC00"/>
<path d="M49.7321 25.6136L50.5465 23.1291L51.7952 23.5313L49.7321 25.6136Z" fill="#FFCC00"/>
<path d="M49.7308 25.6124L51.8595 24.0763L51.0879 23.0214L49.7308 25.6124Z" fill="#FFCC00"/>
<path d="M53.7765 22.6975L51.149 22.6931L51.1513 23.9943L53.7765 22.6975Z" fill="#FFCC00"/>
<path d="M53.7787 22.6953L51.6533 24.2279L50.8784 23.1695L53.7787 22.6953Z" fill="#FFCC00"/>
<path d="M52.8234 25.6136L52.0091 23.1291L50.7604 23.5313L52.8234 25.6136Z" fill="#FFCC00"/>
<path d="M52.8246 25.6124L50.696 24.0763L51.4676 23.0214L52.8246 25.6124Z" fill="#FFCC00"/>
<path d="M44.9359 12.0447L42.8071 10.5085L43.5787 9.45369L44.9359 12.0447Z" fill="#FFCC00"/>
<path d="M44.9345 12.046L44.1201 9.56142L42.8714 9.96357L44.9345 12.046Z" fill="#FFCC00"/>
<path d="M45.8898 9.12646L43.7635 10.66L42.9896 9.60263L45.8898 9.12646Z" fill="#FFCC00"/>
<path d="M45.8886 9.12769L43.2602 9.12531L43.2614 10.4285L45.8886 9.12769Z" fill="#FFCC00"/>
<path d="M43.3871 7.32104L44.2015 9.80565L42.9529 10.2078L43.3871 7.32104Z" fill="#FFCC00"/>
<path d="M43.3871 7.32104L42.5763 9.80307L43.8286 10.2078L43.3871 7.32104Z" fill="#FFCC00"/>
<path d="M41.8444 12.0447L43.9706 10.5112L43.1966 9.45369L41.8444 12.0447Z" fill="#FFCC00"/>
<path d="M41.8432 12.0435L42.6541 9.5613L43.9063 9.9659L41.8432 12.0435Z" fill="#FFCC00"/>
<path d="M40.8879 9.12451L43.0162 10.6603L43.7882 9.605L40.8879 9.12451Z" fill="#FFCC00"/>
<path d="M40.8879 9.12537L43.5166 9.12728L43.5176 10.4309L40.8879 9.12537Z" fill="#FFCC00"/>
<path d="M47.6183 17.7803L48.4327 15.2957L49.6813 15.6978L47.6183 17.7803Z" fill="#FFCC00"/>
<path d="M47.6169 17.7791L49.7457 16.2428L48.9741 15.1881L47.6169 17.7791Z" fill="#FFCC00"/>
<path d="M50.7084 17.7791L48.5822 16.2456L49.3562 15.1881L50.7084 17.7791Z" fill="#FFCC00"/>
<path d="M50.7096 17.7778L49.8986 15.2957L48.6465 15.7003L50.7096 17.7778Z" fill="#FFCC00"/>
<path d="M51.6649 14.8589L49.5366 16.3946L48.7646 15.3394L51.6649 14.8589Z" fill="#FFCC00"/>
<path d="M51.6649 14.8597L49.0362 14.8617L49.0352 16.1653L51.6649 14.8597Z" fill="#FFCC00"/>
<path d="M46.663 14.8608L48.7894 16.3944L49.5633 15.337L46.663 14.8608Z" fill="#FFCC00"/>
<path d="M46.6642 14.8621L49.2927 14.8597L49.2915 16.1629L46.6642 14.8621Z" fill="#FFCC00"/>
<path d="M49.1657 13.0554L48.3513 15.54L49.5999 15.9422L49.1657 13.0554Z" fill="#FFCC00"/>
<path d="M49.1657 13.0554L49.9765 15.5374L48.7242 15.9422L49.1657 13.0554Z" fill="#FFCC00"/>
<path d="M46.6661 30.5326L49.2926 30.5265L49.2895 31.8259L46.6661 30.5326Z" fill="#FFCC00"/>
<path d="M46.663 30.5295L48.7876 32.0612L49.5633 31.0019L46.663 30.5295Z" fill="#FFCC00"/>
<path d="M47.6183 33.449L48.4356 30.9624L49.6813 31.3625L47.6183 33.449Z" fill="#FFCC00"/>
<path d="M47.615 33.4458L49.7457 31.9074L48.9762 30.8548L47.615 33.4458Z" fill="#FFCC00"/>
<path d="M50.7076 33.4458L48.5822 31.9133L49.3571 30.8548L50.7076 33.4458Z" fill="#FFCC00"/>
<path d="M50.7096 33.4438L49.8999 30.9626L48.6466 31.368L50.7096 33.4438Z" fill="#FFCC00"/>
<path d="M49.1679 28.7222L48.3513 31.2083L49.5978 31.6089L49.1679 28.7222Z" fill="#FFCC00"/>
<path d="M49.1679 28.7222L49.9765 31.2027L48.722 31.6089L49.1679 28.7222Z" fill="#FFCC00"/>
<path d="M51.6648 30.5265L49.0364 30.5289L49.0352 31.832L51.6648 30.5265Z" fill="#FFCC00"/>
<path d="M51.6648 30.5253L49.5363 32.0612L48.7646 31.0062L51.6648 30.5253Z" fill="#FFCC00"/>
<path d="M40.8911 36.267L43.5176 36.2608L43.5144 37.5602L40.8911 36.267Z" fill="#FFCC00"/>
<path d="M40.8879 36.2639L43.0125 37.7956L43.7882 36.7362L40.8879 36.2639Z" fill="#FFCC00"/>
<path d="M41.8432 39.1833L42.6605 36.6967L43.9063 37.0969L41.8432 39.1833Z" fill="#FFCC00"/>
<path d="M41.8399 39.1802L43.9707 37.6417L43.2012 36.5892L41.8399 39.1802Z" fill="#FFCC00"/>
<path d="M44.9325 39.1802L42.8071 37.6477L43.582 36.5892L44.9325 39.1802Z" fill="#FFCC00"/>
<path d="M44.9345 39.1782L44.1248 36.6969L42.8714 37.1024L44.9345 39.1782Z" fill="#FFCC00"/>
<path d="M43.3928 34.4565L42.5762 36.9426L43.8227 37.3433L43.3928 34.4565Z" fill="#FFCC00"/>
<path d="M43.3928 34.4565L44.2014 36.9371L42.947 37.3433L43.3928 34.4565Z" fill="#FFCC00"/>
<path d="M45.8898 36.2609L43.2614 36.2632L43.2601 37.5664L45.8898 36.2609Z" fill="#FFCC00"/>
<path d="M45.8898 36.2596L43.7612 37.7956L42.9895 36.7406L45.8898 36.2596Z" fill="#FFCC00"/>
</g>
<defs>
<clipPath id="clip0_1136_2656">
<rect width="71" height="47" fill="white"/>
</clipPath>
</defs>
</svg>
